lib/flags/np-nepal.svg

<svg xmlns="http://www.w3.org/2000/svg" fill="none" aria-hidden="true" viewBox="0 0 42 30"><g id="Country=NP - Nepal, Size=sm (36x24)" filter="url(#filter0_dd_91_26110)"><g clip-path="url(#clip0_91_26110)"><g id="Group 27"><rect id="bg" width="36" height="24" x="3" y="2" fill="white"/><g id="flag"><g id="contents"><path id="background" fill="#C51918" stroke="#4857A1" d="M16.1352 14.342L26.5959 25.5H3.5V2.79809L25.5727 13.5H16.5H15.3459L16.1352 14.342Z"/><mask id="mask0_91_26110" width="25" height="24" x="3" y="2" maskUnits="userSpaceOnUse" style="mask-type:alpha"><path id="background_2" fill="white" stroke="white" d="M16.1352 14.342L26.5959 25.5H3.5V2.79809L25.5727 13.5H16.5H15.3459L16.1352 14.342Z"/></mask><g mask="url(#mask0_91_26110)"><path id="Star 19" fill="#F7FCFF" fill-rule="evenodd" d="M9.55833 22.0102L8.18002 23.6003L8.11639 21.5938L5.94986 22.16L7.22523 20.5035L5.09802 19.8296L7.22523 19.1558L5.94986 17.4992L8.11639 18.0655L8.18002 16.059L9.55833 17.649L10.9366 16.059L11.0003 18.0655L13.1668 17.4992L11.8914 19.1558L14.0186 19.8296L11.8914 20.5035L13.1668 22.16L11.0003 21.5938L10.9366 23.6003L9.55833 22.0102Z" clip-rule="evenodd"/><path id="Star 19_2" fill="#F7FCFF" fill-rule="evenodd" d="M9.5249 10.1388L8.80509 10.9692L8.77186 9.92131L7.6404 10.217L8.30645 9.35191L7.19553 9L8.30645 8.64809L7.6404 7.78296L8.77186 8.07869L8.80509 7.03079L9.5249 7.8612L10.2447 7.03079L10.2779 8.07869L11.4094 7.78296L10.7434 8.64809L11.8543 9L10.7434 9.35191L11.4094 10.217L10.2779 9.92131L10.2447 10.9692L9.5249 10.1388Z" clip-rule="evenodd"/><path id="Shape sp-1695-0" fill="#F9FAFA" fill-rule="evenodd" d="M9.37415 9.89414C11.8788 9.90303 13.2141 8.64004 13.2141 8.64004C13.4783 10.0812 11.4387 11.04 9.39856 11.04C7.35846 11.04 6.12328 9.73302 5.3623 8.64004C5.3623 8.64004 6.86954 9.88525 9.37415 9.89414Z" clip-rule="evenodd"/></g></g></g></g></g></g><defs><filter id="filter0_dd_91_26110" width="42" height="30" x="0" y="0" color-interpolation-filters="sRGB" filterUnits="userSpaceOnUse"><feFlood flood-opacity="0" result="BackgroundImageFix"/><feColorMatrix in="SourceAlpha" result="hardAlpha" values="0 0 0 0 0 0 0 0 0 0 0 0 0 0 0 0 0 0 127 0"/><feOffset dy="1"/><feGaussianBlur stdDeviation="1"/><feColorMatrix values="0 0 0 0 0.0627451 0 0 0 0 0.0941176 0 0 0 0 0.156863 0 0 0 0.06 0"/><feBlend in2="BackgroundImageFix" result="effect1_dropShadow_91_26110"/><feColorMatrix in="SourceAlpha" result="hardAlpha" values="0 0 0 0 0 0 0 0 0 0 0 0 0 0 0 0 0 0 127 0"/><feOffset dy="1"/><feGaussianBlur stdDeviation="1.5"/><feColorMatrix values="0 0 0 0 0.0627451 0 0 0 0 0.0941176 0 0 0 0 0.156863 0 0 0 0.1 0"/><feBlend in2="effect1_dropShadow_91_26110" result="effect2_dropShadow_91_26110"/><feBlend in="SourceGraphic" in2="effect2_dropShadow_91_26110" result="shape"/></filter><clipPath id="clip0_91_26110"><rect width="36" height="24" x="3" y="2" fill="white" rx="2"/></clipPath></defs></svg>

<svg xmlns="http://www.w3.org/2000/svg" fill="none" aria-hidden="true" viewBox="0 0 42 30"><g filter="url(#a)"><g clip-path="url(#b)"><path fill="#fff" d="M3 2h36v24H3z"/><path fill="#C51918" stroke="#4857A1" d="M16.135 14.342 26.595 25.5H3.5V2.798L25.573 13.5H15.346l.79.842Z"/><mask id="c" width="25" height="24" x="3" y="2" maskUnits="userSpaceOnUse" style="mask-type:alpha"><path fill="#fff" stroke="#fff" d="M16.135 14.342 26.595 25.5H3.5V2.798L25.573 13.5H15.346l.79.842Z"/></mask><g fill-rule="evenodd" clip-rule="evenodd" mask="url(#c)"><path fill="#F7FCFF" d="M9.558 22.01 8.18 23.6l-.064-2.006-2.166.566 1.275-1.657-2.127-.673 2.127-.674-1.275-1.657 2.166.567.064-2.007 1.378 1.59 1.379-1.59.063 2.006 2.167-.566-1.276 1.657 2.128.674-2.128.674 1.276 1.656L11 21.594l-.063 2.006-1.379-1.59Zm-.033-11.871-.72.83-.033-1.048-1.132.296.666-.865L7.196 9l1.11-.352-.666-.865 1.132.296.033-1.048.72.83.72-.83.033 1.048 1.131-.296-.666.865L11.854 9l-1.11.352.665.865-1.131-.296-.033 1.048-.72-.83Z"/><path fill="#F9FAFA" d="M9.374 9.894c2.505.009 3.84-1.254 3.84-1.254.264 1.441-1.775 2.4-3.815 2.4s-3.276-1.307-4.037-2.4c0 0 1.508 1.245 4.012 1.254Z"/></g></g></g><defs><clipPath id="b"><rect width="36" height="24" x="3" y="2" fill="#fff" rx="2"/></clipPath><filter id="a" width="42" height="30" x="0" y="0" color-interpolation-filters="sRGB" filterUnits="userSpaceOnUse"><feFlood flood-opacity="0" result="BackgroundImageFix"/><feColorMatrix in="SourceAlpha" result="hardAlpha" values="0 0 0 0 0 0 0 0 0 0 0 0 0 0 0 0 0 0 127 0"/><feOffset dy="1"/><feGaussianBlur stdDeviation="1"/><feColorMatrix values="0 0 0 0 0.0627451 0 0 0 0 0.0941176 0 0 0 0 0.156863 0 0 0 0.06 0"/><feBlend in2="BackgroundImageFix" result="effect1_dropShadow_91_26110"/><feColorMatrix in="SourceAlpha" result="hardAlpha" values="0 0 0 0 0 0 0 0 0 0 0 0 0 0 0 0 0 0 127 0"/><feOffset dy="1"/><feGaussianBlur stdDeviation="1.5"/><feColorMatrix values="0 0 0 0 0.0627451 0 0 0 0 0.0941176 0 0 0 0 0.156863 0 0 0 0.1 0"/><feBlend in2="effect1_dropShadow_91_26110" result="effect2_dropShadow_91_26110"/><feBlend in="SourceGraphic" in2="effect2_dropShadow_91_26110" result="shape"/></filter></defs></svg>
